img/twitter.svg

<svg width="44" height="44" viewBox="0 0 44 44" fill="none" xmlns="http://www.w3.org/2000/svg">
<path d="M44 22C44 28.0751 41.5376 33.5751 37.5564 37.5564C33.5751 41.5376 28.0751 44 22 44C15.9249 44 10.4249 41.5376 6.44365 37.5564C2.46243 33.5751 0 28.0751 0 22C0 15.9249 2.46243 10.4249 6.44365 6.44365C10.4249 2.46243 15.9249 0 22 0C28.0751 0 33.5751 2.46243 37.5564 6.44365C41.5376 10.4249 44 15.9249 44 22Z" fill="white"/>
<g clip-path="url(#clip0)">
<path d="M32 15.7988C31.2563 16.125 30.4637 16.3412 29.6375 16.4462C30.4875 15.9388 31.1363 15.1412 31.4412 14.18C30.6488 14.6525 29.7738 14.9863 28.8412 15.1725C28.0887 14.3713 27.0162 13.875 25.8462 13.875C23.5763 13.875 21.7487 15.7175 21.7487 17.9763C21.7487 18.3012 21.7762 18.6137 21.8438 18.9112C18.435 18.745 15.4188 17.1113 13.3925 14.6225C13.0387 15.2363 12.8313 15.9388 12.8313 16.695C12.8313 18.115 13.5625 19.3737 14.6525 20.1025C13.9937 20.09 13.3475 19.8988 12.8 19.5975C12.8 19.61 12.8 19.6262 12.8 19.6425C12.8 21.635 14.2212 23.29 16.085 23.6712C15.7512 23.7625 15.3875 23.8062 15.01 23.8062C14.7475 23.8062 14.4825 23.7913 14.2337 23.7362C14.765 25.36 16.2725 26.5538 18.065 26.5925C16.67 27.6838 14.8988 28.3412 12.9813 28.3412C12.645 28.3412 12.3225 28.3263 12 28.285C13.8162 29.4563 15.9688 30.125 18.29 30.125C25.835 30.125 29.96 23.875 29.96 18.4575C29.96 18.2762 29.9538 18.1013 29.945 17.9275C30.7588 17.35 31.4425 16.6288 32 15.7988Z" fill="#AFB1B8"/>
</g>
<defs>
<clipPath id="clip0">
<rect x="12" y="12" width="20" height="20" fill="white"/>
</clipPath>
</defs>
</svg>

<svg width="44" height="44" fill="none" xmlns="http://www.w3.org/2000/svg"><path d="M44 22a21.931 21.931 0 01-6.444 15.556A21.931 21.931 0 0122 44a21.931 21.931 0 01-15.556-6.444A21.931 21.931 0 010 22 21.931 21.931 0 016.444 6.444 21.931 21.931 0 0122 0a21.931 21.931 0 0115.556 6.444A21.931 21.931 0 0144 22z" fill="#fff"/><g clip-path="url(#clip0)"><path d="M32 15.799a8.55 8.55 0 01-2.363.647 4.076 4.076 0 001.804-2.266 8.191 8.191 0 01-2.6.992 4.099 4.099 0 00-7.093 2.804c0 .325.028.638.096.935-3.409-.166-6.425-1.8-8.452-4.289a4.128 4.128 0 00-.56 2.073c0 1.42.73 2.679 1.82 3.407a4.048 4.048 0 01-1.852-.505v.045a4.119 4.119 0 003.285 4.03 4.09 4.09 0 01-1.075.134 3.62 3.62 0 01-.776-.07c.531 1.624 2.039 2.818 3.831 2.857a8.238 8.238 0 01-5.084 1.748 7.67 7.67 0 01-.981-.056 11.543 11.543 0 006.29 1.84c7.545 0 11.67-6.25 11.67-11.668 0-.18-.006-.356-.015-.53A8.179 8.179 0 0032 15.8z" fill="#AFB1B8"/></g><defs><clipPath id="clip0"><path fill="#fff" d="M12 12h20v20H12z"/></clipPath></defs></svg>
